X:3104
T:Polka Country Dance
P:Tiddlediwinks Polka
C:Traditional
R:Reel (8x32) 2 chords
B:RSCDS 31-4
Z:Anselm Lingnau <anselm@strathspey.org>
M:2/4
L:1/16
K:G
D2|:"G"GFGA BABc|d2g2 d3B|"Am"c2A2 "G"d3F|"A7"AGFE "D7"D2D2|\
   "G"GFGA BABc|d2g2 "G7"d3B|
                             "Am"c2A2 "D7"d3F|"G"G2"C"G2 "G"G2:|\
"A7"FG|"D"A2f2 fefg|"Em"f2e2e2 EF|"A7"G2e2 e^def|"D"e2=d2d2 FG|
   "D"A2f2 fefg|"Em"f2e2g2 fe|"A"d^cBA "A7"^GABc|"D"d2f2d2 FG|\
   "D"A2f2 fefg|"Em"f2e2e2 EF|
                              "A7"G2e2 e^def|"D"e2=d2 "D7"dcBA|\
   "G"GFGA BABc|d2g2 d3B|"Am"c2A2 "D7"d3F|"G"G2"C"G2 "G"G2|]

